X:119
T:Jenny Nettles. Ru2.119
%%VWML:RutherfordVol2-2249-p60-0
F:http://www.vwml.org/record/RutherfordVol2/2249/p60
B:RUTHERFORD Complete Collection of 200 Country Dances Vol.2; 1759.
Z:vmp.Mike Hicken 2015 www.village-music-project.org.uk
M:C
Q:1/4=140
K:Ador
c2B2A2a2|efge d/c/B/A/ GB|c2B2A2a2|ge=fd e2A2 :|
|: c>deA c>deA|BGdG B>cdB|c>deA cdea|ge=fd e2A2 :|
W:
W: Foot it 4 & Right hands across quite round .|
W: foot it & Left back again :|  Lead thro the 3d Cu:
W: ? 2d. Cu: follow them & cast up into their
W: own Places .|.  foot it & right & Left into the
W: 2d. Cu: Places :|.
T:Jacks a-live. Ru2.120
L:1/8
B:RUTHERFORD Complete Collection of 200 Country Dances Vol.2; 1759.
Z:vmp.Mike Hicken 2015 www.village-music-project.org.uk
N: The final symbol of dance notation in the original is :|
M:6/8
Q:3/8=120
K:G
|:G3 BAB|A3 cAc|d2B c2A|BAG FED|
G3 BGB|A3 cAc|dBG cAF|G3G,3 :|
|: g3 gag|f3 fgf|e3 efg|a2g fed|
g2g gag|f2f fgf|efg agf|g3g3|
gag gag|fgf fgf|efe efg|a2g fed|
g3 dBd|e3 cAc|dcB AGF|G3 G,3 :|
W:
W: Foot it 3 & turn .|  the same with the 2d Man :|
W: Gallop down one Cu: up again & cast off hands round
W: all Six :|
